domfk/img/social/vk.svg

<svg width="32" height="20" viewBox="0 0 32 20" fill="none" xmlns="http://www.w3.org/2000/svg">
<path d="M16.1932 19.9998C20.8224 19.9998 19.1718 17.0691 19.5291 16.2265C19.5238 15.5972 19.5185 14.9918 19.5398 14.6238C19.8331 14.7065 20.5251 15.0572 21.9544 16.4465C24.1611 18.6731 24.7251 19.9998 26.5077 19.9998H29.789C30.829 19.9998 31.3703 19.5691 31.641 19.2078C31.9023 18.8585 32.1583 18.2451 31.8783 17.2905C31.1463 14.9918 26.877 11.0225 26.6117 10.6039C26.6517 10.5266 26.7157 10.4239 26.749 10.3706H26.7464C27.589 9.25723 30.805 4.43862 31.2783 2.51064C31.2797 2.50797 31.281 2.50397 31.281 2.49997C31.537 1.61998 31.3023 1.04932 31.0597 0.726659C30.6943 0.243997 30.113 0 29.3277 0H26.0464C24.9477 0 24.1144 0.553327 23.6931 1.56265C22.9877 3.35596 21.0064 7.04392 19.5211 8.34924C19.4758 6.49993 19.5065 5.08794 19.5305 4.03862C19.5785 1.99198 19.7331 0 17.6091 0H12.4519C11.1212 0 9.84789 1.45332 11.2265 3.17863C12.4319 4.69061 11.6599 5.53327 11.9199 9.72789C10.9065 8.64124 9.1039 5.7066 7.82925 1.95598C7.47192 0.941323 6.93059 0.00133322 5.40661 0.00133322H2.12531C0.794658 0.00133322 0 0.726658 0 1.94131C0 4.66928 6.0386 19.9998 16.1932 19.9998ZM5.40661 2.00131C5.69594 2.00131 5.72527 2.00131 5.93993 2.61064C7.24525 6.4546 10.1732 12.1425 12.3119 12.1425C13.9185 12.1425 13.9185 10.4959 13.9185 9.87589L13.9172 4.93995C13.8292 3.30663 13.2345 2.49331 12.8439 1.99998L17.5211 2.00531C17.5238 2.02798 17.4945 7.46525 17.5345 8.78257C17.5345 10.6532 19.0198 11.7252 21.3384 9.37856C23.7851 6.61726 25.4771 2.48931 25.5451 2.32131C25.6451 2.08131 25.7317 1.99998 26.0464 1.99998H29.3277H29.341C29.3397 2.00398 29.3397 2.00798 29.3383 2.01198C29.0383 3.41196 26.077 7.87325 25.0864 9.25857C25.0704 9.2799 25.0557 9.30257 25.0411 9.32523C24.6051 10.0372 24.2504 10.8239 25.1011 11.9305H25.1024C25.1797 12.0239 25.3811 12.2425 25.6744 12.5465C26.5864 13.4879 29.7143 16.7065 29.9917 17.9865C29.8077 18.0158 29.6077 17.9945 26.5077 18.0011C25.8477 18.0011 25.3317 17.0145 23.3624 15.0278C21.5918 13.3052 20.4424 12.6012 19.3958 12.6012C17.3638 12.6012 17.5118 14.2505 17.5305 16.2452C17.5371 18.4078 17.5238 17.7238 17.5385 17.8598C17.4198 17.9065 17.0798 17.9998 16.1932 17.9998C7.73325 17.9998 2.22398 4.57195 2.01198 2.00531C2.08531 1.99864 3.09463 2.00264 5.40661 2.00131Z" fill="#FFC844"/>
</svg>

<svg width="32" height="20" fill="none" xmlns="http://www.w3.org/2000/svg"><path d="M16.193 20c4.63 0 2.979-2.93 3.336-3.773-.005-.63-.01-1.235.01-1.603.294.082.986.433 2.415 1.822C24.161 18.674 24.725 20 26.508 20h3.281c1.04 0 1.581-.43 1.852-.792.261-.35.517-.963.237-1.917-.732-2.3-5.001-6.268-5.266-6.687.04-.077.104-.18.137-.233h-.003c.843-1.114 4.059-5.932 4.532-7.86a.024.024 0 00.003-.011c.256-.88.021-1.45-.221-1.773C30.694.244 30.113 0 29.328 0h-3.282c-1.098 0-1.932.553-2.353 1.563-.705 1.793-2.687 5.48-4.172 6.786a85.508 85.508 0 01.01-4.31C19.578 1.992 19.733 0 17.608 0h-5.157c-1.33 0-2.604 1.453-1.226 3.179 1.206 1.512.434 2.354.694 6.549-1.014-1.087-2.816-4.021-4.09-7.772C7.471.941 6.93.001 5.406.001H2.125C.795.001 0 .727 0 1.941 0 4.67 6.039 20 16.193 20zM5.407 2c.289 0 .318 0 .533.61 1.305 3.844 4.233 9.531 6.372 9.531 1.607 0 1.607-1.646 1.607-2.266l-.002-4.936c-.088-1.633-.682-2.447-1.073-2.94l4.677.005c.003.023-.027 5.46.014 6.778 0 1.87 1.485 2.942 3.803.596 2.447-2.762 4.14-6.89 4.207-7.058.1-.24.187-.321.501-.321h3.295l-.003.012c-.3 1.4-3.261 5.861-4.252 7.247-.016.02-.03.044-.045.066-.436.712-.79 1.499.06 2.606h.001c.078.093.28.312.572.616.912.94 4.04 4.16 4.318 5.44-.184.029-.384.008-3.484.014-.66 0-1.176-.986-3.146-2.973-1.77-1.723-2.92-2.427-3.966-2.427-2.032 0-1.884 1.65-1.866 3.644.007 2.163-.006 1.479.008 1.615-.118.047-.458.14-1.345.14C7.733 18 2.224 4.572 2.012 2.005c.073-.006 1.083-.002 3.395-.004z" fill="#FFC844"/></svg>
